X:188 
T:Rusty Boat* (reel) , The
B:CRE4.126 (gan ainm)
F:file ID: cre.4/188rusty
S:Grier MS
Q:180
L:1/8
M:4/4
R:reel
K:D
d2fd cecA|d2fd fafe|d2fd cecA|Bdce dDD2:|
AFFA BGGB|AFdA BFFB|AFFA GEEG|AFdF ADDB|
AFFA BGGB|AFdA BFFB|AFFA GEEG|Aaeg fdec ||


%%%

